X: 86
T:Launching The Boat
M:C|
L:1/4
C:Francie Byrne
Z:Chris Corrigan
K:D
c|:d2fd AGFA|BE~E2 BAFA|d2fd AGFD|EFGA BABc|\
defd AGFA|BE~E2 BAFG|A2FA dAFD|EFDE FDFA::\
fd~d2 fdad|fadf a3f|ge~e2 (3gfe be|gbeg beag|\
fadf edBc|defd AGFG|(3ABA FA dAFD|EFDE FDFA:|

